!! 00000] TT[WS
!!!OTL: Fang yang
!!!ARE: Asia, China,ÿShanxi Dingxiang
!! Ethnic Group: Han
!! WI, 49
!!!SCT: J0051
!!!YEM: Copyright 1995, estate of Helmut Schaffrath.
**kern
*ICvox
*Ivox
*M2/4
*k[f#c#]
*D:
{4b
8b
8dd
=1
4b
8a
8f#
=2
8.dd
16ee
8dd
8b
=3
8b
8a
4f#}
=4
{8.a
16a
8f#
8a
=5
4b
4dd
=6
8.f#
16e
8d
16e
16f#
=7
4e
4r}
=8
{4f#
4f#
=9
4b
8dd
8b
=10
8b
8f#
4b
=11
4.d
8B}
=12
{8b
4b
8dd
=13
4b
8d
8e
=14
8.f#
16a
8e
8c#
=15
2B}
==
!!!AGN: Xiaodiao. Laodong, Fangyang
!!!ONB: ESAC (Essen Associative Code) Database: CHINA
!!!AMT: simple duple
!!!AIN: vox
!!!EED: Helmut Schaffrath
!!!EEV: 1.0
*-
